icons/circle/48/kbreakout.svg

<svg xmlns="http://www.w3.org/2000/svg" viewBox="0 0 48 48">
 <defs>
  <linearGradient id="linearGradient3764" x1="1" x2="47" gradientUnits="userSpaceOnUse" gradientTransform="matrix(0,-1,1,0,-1.5e-6,47.999998)">
   <stop style="stop-color:#4e5b62;stop-opacity:1"/>
   <stop offset="1" style="stop-color:#56656d;stop-opacity:1"/>
  </linearGradient>
  <linearGradient id="linearGradient4272" x1="23" x2="37.999" gradientUnits="userSpaceOnUse">
   <stop style="stop-color:#000;stop-opacity:0.098"/>
   <stop offset="1" style="stop-color:#000;stop-opacity:0.02"/>
  </linearGradient>
  <linearGradient id="linearGradient4197" x1="13.167" x2="42.33" gradientUnits="userSpaceOnUse">
   <stop style="stop-color:#f9f4a5;stop-opacity:0.732"/>
   <stop offset="1" style="stop-color:#f9f4a5;stop-opacity:0.242"/>
  </linearGradient>
  <radialGradient id="radialGradient4159" cx="19" cy="19" r="7" gradientUnits="userSpaceOnUse" gradientTransform="translate(-12.045517,6.9544827)">
   <stop style="stop-color:#ab951d;stop-opacity:1"/>
   <stop offset="1" style="stop-color:#9a861a;stop-opacity:1"/>
  </radialGradient>
 </defs>
 <g>
  <path d="m 36.31 5 c 5.859 4.062 9.688 10.831 9.688 18.5 c 0 12.426 -10.07 22.5 -22.5 22.5 c -7.669 0 -14.438 -3.828 -18.5 -9.688 c 1.037 1.822 2.306 3.499 3.781 4.969 c 4.085 3.712 9.514 5.969 15.469 5.969 c 12.703 0 23 -10.298 23 -23 c 0 -5.954 -2.256 -11.384 -5.969 -15.469 c -1.469 -1.475 -3.147 -2.744 -4.969 -3.781 z m 4.969 3.781 c 3.854 4.113 6.219 9.637 6.219 15.719 c 0 12.703 -10.297 23 -23 23 c -6.081 0 -11.606 -2.364 -15.719 -6.219 c 4.16 4.144 9.883 6.719 16.219 6.719 c 12.703 0 23 -10.298 23 -23 c 0 -6.335 -2.575 -12.06 -6.719 -16.219 z" style="opacity:0.05"/>
  <path d="m 41.28 8.781 c 3.712 4.085 5.969 9.514 5.969 15.469 c 0 12.703 -10.297 23 -23 23 c -5.954 0 -11.384 -2.256 -15.469 -5.969 c 4.113 3.854 9.637 6.219 15.719 6.219 c 12.703 0 23 -10.298 23 -23 c 0 -6.081 -2.364 -11.606 -6.219 -15.719 z" style="opacity:0.1"/>
  <path d="m 31.25 2.375 c 8.615 3.154 14.75 11.417 14.75 21.13 c 0 12.426 -10.07 22.5 -22.5 22.5 c -9.708 0 -17.971 -6.135 -21.12 -14.75 a 23 23 0 0 0 44.875 -7 a 23 23 0 0 0 -16 -21.875 z" style="opacity:0.2"/>
 </g>
 <g>
  <path d="m 24 1 c 12.703 0 23 10.297 23 23 c 0 12.703 -10.297 23 -23 23 -12.703 0 -23 -10.297 -23 -23 0 -12.703 10.297 -23 23 -23 z" style="fill:url(#linearGradient3764);fill-opacity:1"/>
 </g>
 <g>
  <path d="m 40.03 7.531 c 3.712 4.084 5.969 9.514 5.969 15.469 0 12.703 -10.297 23 -23 23 c -5.954 0 -11.384 -2.256 -15.469 -5.969 4.178 4.291 10.01 6.969 16.469 6.969 c 12.703 0 23 -10.298 23 -23 0 -6.462 -2.677 -12.291 -6.969 -16.469 z" style="opacity:0.1"/>
 </g>
 <g>
  <g>
   <path d="M 17.859 13 A 6 6 0 0 0 15 13.805 6 6 0 0 0 12.805 22 6 6 0 0 0 13.09 22.445 C 14.246 24.299 18.07 29.741 21 33 l 8 0 C 32.774 28.04 38.766 19.472 37.918 18.15 37.26 17.422 31.706 22.522 27.09 26.986 25.898 23.33 24.542 19.32 23.738 17.266 A 6 6 0 0 0 23.2 16 6 6 0 0 0 17.859 13" style="fill:url(#linearGradient4272);fill-opacity:1;stroke:none"/>
   <rect rx="0.5" y="33" x="16" height="4" width="18" style="fill:#000;fill-opacity:0.098;stroke:none;fill-rule:evenodd"/>
  </g>
  <g>
   <path transform="matrix(0.85714286,0,0,0.85714286,0.71428568,1.7142856)" d="m 25.06 15.5 c 0.966 1.674 5.482 15.512 6.771 19.833 -3.5 0 -4.667 0 -9.333 0 c -3.638 -4.047 -8.596 -11.159 -9.562 -12.833" style="fill:url(#linearGradient4197);fill-opacity:1;stroke:none"/>
   <circle r="7" cy="25.954" cx="6.954" transform="matrix(0.74230749,-0.42857143,0.42857143,0.74230749,0.71428568,1.7142856)" style="fill:url(#radialGradient4159);fill-opacity:1;stroke:none"/>
   <path transform="matrix(0.85714286,0,0,0.85714286,0.71428568,1.7142856)" d="m 22.5 35.33 c 2.322 -2.312 18.502 -18.699 19.738 -17.322 0.99 1.539 -6 11.536 -10.405 17.322" style="fill:url(#linearGradient4197);fill-opacity:1;stroke:none"/>
   <rect width="18" height="4" x="15" y="32" rx="0.5" style="fill:#ccc;fill-opacity:1;stroke:none;fill-rule:evenodd"/>
   <rect rx="0.5" y="33" x="17" height="2" width="14" style="fill:#a6a6a6;fill-opacity:1"/>
  </g>
 </g>
</svg>

<svg xmlns="http://www.w3.org/2000/svg" viewBox="0 0 48 48">
  <defs>
    <linearGradient id="a" x1="1" x2="47" gradientUnits="userSpaceOnUse" gradientTransform="rotate(-90 24 24)">
      <stop stop-color="#4e5b62"/>
      <stop offset="1" stop-color="#56656d"/>
    </linearGradient>
    <linearGradient id="b" x1="23" x2="37.999" gradientUnits="userSpaceOnUse">
      <stop stop-opacity=".098"/>
      <stop offset="1" stop-opacity=".02"/>
    </linearGradient>
    <linearGradient id="c" x1="13.167" x2="42.33" gradientUnits="userSpaceOnUse">
      <stop stop-color="#f9f4a5" stop-opacity=".732"/>
      <stop offset="1" stop-color="#f9f4a5" stop-opacity=".242"/>
    </linearGradient>
    <radialGradient id="d" cx="19" cy="19" r="7" gradientUnits="userSpaceOnUse" gradientTransform="translate(-12.046 6.954)">
      <stop stop-color="#ab951d"/>
      <stop offset="1" stop-color="#9a861a"/>
    </radialGradient>
  </defs>
  <path d="M36.31 5c5.859 4.062 9.688 10.831 9.688 18.5 0 12.426-10.07 22.5-22.5 22.5-7.669 0-14.438-3.828-18.5-9.688a23.24 23.24 0 0 0 3.781 4.969 22.923 22.923 0 0 0 15.469 5.969c12.703 0 23-10.298 23-23a22.92 22.92 0 0 0-5.969-15.469A23.216 23.216 0 0 0 36.31 5zm4.969 3.781A22.911 22.911 0 0 1 47.498 24.5c0 12.703-10.297 23-23 23a22.909 22.909 0 0 1-15.719-6.219C12.939 45.425 18.662 48 24.998 48c12.703 0 23-10.298 23-23 0-6.335-2.575-12.06-6.719-16.219z" opacity=".05"/>
  <path d="M41.28 8.781a22.923 22.923 0 0 1 5.969 15.469c0 12.703-10.297 23-23 23A22.92 22.92 0 0 1 8.78 41.281 22.911 22.911 0 0 0 24.499 47.5c12.703 0 23-10.298 23-23A22.909 22.909 0 0 0 41.28 8.781z" opacity=".1"/>
  <path d="M31.25 2.375C39.865 5.529 46 13.792 46 23.505c0 12.426-10.07 22.5-22.5 22.5-9.708 0-17.971-6.135-21.12-14.75a23 23 0 0 0 44.875-7 23 23 0 0 0-16-21.875z" opacity=".2"/>
  <path d="M24 1c12.703 0 23 10.297 23 23S36.703 47 24 47 1 36.703 1 24 11.297 1 24 1z" fill="url(#a)"/>
  <g>
    <path d="M40.03 7.531A22.922 22.922 0 0 1 45.999 23c0 12.703-10.297 23-23 23A22.92 22.92 0 0 1 7.53 40.031C11.708 44.322 17.54 47 23.999 47c12.703 0 23-10.298 23-23 0-6.462-2.677-12.291-6.969-16.469z" opacity=".1"/>
  </g>
  <g>
    <path d="M17.859 13a6 6 0 0 0-2.859.805A6 6 0 0 0 12.805 22a6 6 0 0 0 .285.445C14.246 24.299 18.07 29.741 21 33h8c3.774-4.96 9.766-13.528 8.918-14.85-.658-.728-6.212 4.372-10.828 8.836-1.192-3.656-2.548-7.666-3.352-9.72A6 6 0 0 0 23.2 16a6 6 0 0 0-5.341-3" fill="url(#b)"/>
    <rect rx=".5" y="33" x="16" height="4" width="18" fill-opacity=".098" fill-rule="evenodd"/>
    <g>
      <path transform="matrix(.85714 0 0 .85714 .714 1.714)" d="M25.06 15.5c.966 1.674 5.482 15.512 6.771 19.833h-9.333c-3.638-4.047-8.596-11.159-9.562-12.833" fill="url(#c)"/>
      <circle r="7" cy="25.954" cx="6.954" transform="scale(.85714) rotate(-30 4.149 -.555)" fill="url(#d)"/>
      <path transform="matrix(.85714 0 0 .85714 .714 1.714)" d="M22.5 35.33c2.322-2.312 18.502-18.699 19.738-17.322.99 1.539-6 11.536-10.405 17.322" fill="url(#c)"/>
      <rect width="18" height="4" x="15" y="32" rx=".5" fill="#ccc" fill-rule="evenodd"/>
      <rect rx=".5" y="33" x="17" height="2" width="14" fill="#a6a6a6"/>
    </g>
  </g>
</svg>
